!!!OTL: Der himmlische Ackersmann Was wollen wir singen und fangen an?
!!!ARE: Europa, Mitteleuropa, Lothringen, Weiler
!!!SCT: D0018
!!!YEM: Copyright 1995, estate of Helmut Schaffrath.
**kern
*ICvox
*Ivox
*M3/4
*k[f#]
*e:
{8gn
8e
=1
4e
4e
4e
=2
4b
4b
4a
=3
2b
4a
=4
2gn}
{4a
=5
2a
4b
=6
4ccn
4b
4a
=7
4gn
4e
4f#
=8
2e
4r}
=9
{2.a
=10
4gn
4f#
4e
=11
2dn}
{4dn
=12
4gn
4gn
4a
=13
4b
4b
4a
=14
4gn
4e
4f#
=15
2e
4r}
==
!!!AGN: geistliches Lied
!! Inzipit = Variante zum Lied; Verzierungen
!!!ONB: ESAC (Essen Associative Code) Database: DVA
!!!AMT: simple triple
!!!AIN: vox
!!!EED: Helmut Schaffrath
!!!EEV: 1.0
*-
